assets/static/svgs/currencies/icon-thai-baht.svg

<svg width="1em" height="1em"  viewBox="0 0 24 24" fill="none" xmlns="http://www.w3.org/2000/svg">
<symbol id="item"
width="1em"
height="1em"
viewBox="0 0 24 24"
fill="none"
>
 <path d="M21.7007 14.4192C20.3649 19.7764 14.9384 23.0367 9.58001 21.7008C4.22382 20.3652 0.963159 14.9389 2.29955 9.58206C3.63469 4.22425 9.06121 0.963624 14.418 2.29925C19.7761 3.63487 23.0364 9.06175 21.7007 14.4192Z" fill="#F7931A"/> <path d="M16.4098 10.5754C16.6089 9.24478 15.5957 8.52947 14.2102 8.05228L14.6596 6.24978L13.5623 5.97634L13.1248 7.73134C12.8363 7.65947 12.54 7.59166 12.2456 7.52447L12.6863 5.7579L11.5896 5.48447L11.1399 7.28634C10.9011 7.23196 10.6667 7.17822 10.4392 7.12166L10.4404 7.11603L8.92717 6.73821L8.63526 7.91009C8.63526 7.91009 9.44941 8.09665 9.43222 8.10822C9.87664 8.21915 9.95696 8.51321 9.94352 8.74634L9.43159 10.7998C9.46222 10.8076 9.50191 10.8188 9.54567 10.8363C9.5091 10.8273 9.47004 10.8173 9.42972 10.8076L8.71214 13.6842C8.65776 13.8192 8.51994 14.0217 8.20928 13.9448C8.22022 13.9607 7.41169 13.7457 7.41169 13.7457L6.86694 15.0017L8.29491 15.3576C8.56056 15.4242 8.8209 15.4938 9.07717 15.5595L8.62307 17.3826L9.71912 17.656L10.1689 15.8523C10.4683 15.9335 10.7589 16.0085 11.0433 16.0792L10.5952 17.8745L11.6925 18.1479L12.1466 16.3282C14.0177 16.6823 15.4247 16.5395 16.017 14.8473C16.4942 13.4848 15.9932 12.6988 15.0087 12.1863C15.7257 12.021 16.2658 11.5495 16.4098 10.5754ZM13.9027 14.0907C13.5636 15.4532 11.2693 14.7167 10.5255 14.532L11.128 12.1167C11.8719 12.3023 14.2571 12.6698 13.9027 14.0907ZM14.2421 10.5557C13.9327 11.7951 12.0231 11.1654 11.4037 11.011L11.95 8.82041C12.5694 8.97478 14.5643 9.2629 14.2421 10.5557Z" fill="var(--color--bulma-100)"/> <circle cx="12" cy="12" r="12" fill="url(#paint0_linear)"/> <path d="M12.8994 19.0579H11.35V17.4101H8.31372V6.8942H11.35V4.94235H12.8994V6.90834C13.7378 6.9272 14.4395 7.03799 15.0047 7.24072C15.4493 7.3963 15.806 7.67918 16.0746 8.08935C16.1904 8.28264 16.2785 8.47594 16.3387 8.66924C16.4035 8.85782 16.4359 9.05819 16.4359 9.27035C16.4359 10.1614 16.026 10.8875 15.2061 11.4485C15.0996 11.5098 14.9954 11.5711 14.8935 11.6324C14.7962 11.6937 14.6804 11.762 14.5461 11.8374C14.9213 11.9506 15.264 12.0991 15.5744 12.283C15.8847 12.4668 16.1557 12.6861 16.3873 12.9407C16.7393 13.3273 16.9154 13.827 16.9154 14.4399C16.9154 14.9727 16.7509 15.47 16.422 15.9321C16.1071 16.3752 15.6693 16.7265 15.1089 16.9858C14.5391 17.2498 13.8026 17.3912 12.8994 17.4101V19.0579ZM12.8994 11.0383C13.6359 10.9393 14.062 10.7696 14.1778 10.5291C14.2936 10.284 14.3353 9.9964 14.3029 9.66638C14.2705 9.33636 14.1686 9.08177 13.9972 8.90261C13.8304 8.71874 13.4645 8.59381 12.8994 8.5278V11.0383ZM11.35 8.49952H10.3286V11.1515H11.35V8.49952ZM12.8994 15.7977C13.761 15.6987 14.2774 15.4064 14.4488 14.9208C14.6202 14.4352 14.6109 13.9755 14.421 13.5418C14.2357 13.1033 13.7285 12.8723 12.8994 12.8487V15.7977ZM10.3286 12.7497V15.8048H11.35V12.7497H10.3286Z" fill="var(--color--bulma-100)"/> <defs> <linearGradient id="paint0_linear" x1="5.14568" y1="1.82868" x2="17.527" y2="22.9497" gradientUnits="userSpaceOnUse"> <stop stop-color="#FF3D44"/> <stop offset="0.515525" stop-color="#FF3D44"/> <stop offset="0.515625" stop-color="#3356D2"/> </linearGradient> </defs> 
</symbol>
</svg>

<svg width="1em" height="1em"    viewBox="0 0 24 24" fill="none" xmlns="http://www.w3.org/2000/svg">
<symbol id="item"
width="1em"
height="1em"
viewBox="0 0 24 24"
fill="none"
>
<path d="M21.7 14.42c-1.335 5.356-6.762 8.617-12.12 7.28C4.224 20.366.963 14.94 2.3 9.583 3.635 4.224 9.06.964 14.418 2.3c5.358 1.336 8.618 6.763 7.283 12.12Z" fill="#F7931A"/><path d="M16.41 10.575c.199-1.33-.814-2.046-2.2-2.523l.45-1.802-1.098-.274-.437 1.755c-.289-.072-.585-.14-.88-.207l.441-1.766-1.096-.274-.45 1.802a36.683 36.683 0 0 1-.7-.164v-.006l-1.513-.378-.292 1.172s.814.187.797.198c.445.111.525.405.512.638L9.432 10.8c.03.008.07.019.114.036l-.116-.028-.718 2.876c-.054.135-.192.338-.503.26.011.017-.797-.198-.797-.198l-.545 1.256 1.428.356c.266.066.526.136.782.201l-.454 1.824 1.096.273.45-1.804c.3.082.59.157.874.227l-.448 1.796 1.098.273.454-1.82c1.87.354 3.278.212 3.87-1.48.477-1.363-.024-2.15-1.008-2.662.717-.165 1.257-.636 1.4-1.61Zm-2.507 3.516c-.34 1.362-2.634.626-3.378.441l.603-2.415c.744.185 3.13.553 2.775 1.974Zm.34-3.535c-.31 1.24-2.22.61-2.84.455l.547-2.19c.62.154 2.614.442 2.292 1.735Z" fill="var(--color--bulma-100)"/><circle cx="12" cy="12" r="12" fill="url(#a)"/><path d="M12.9 19.058h-1.55V17.41H8.314V6.894h3.036V4.942h1.55v1.966c.838.02 1.54.13 2.105.333a2.07 2.07 0 0 1 1.07.848c.115.194.204.387.264.58.065.189.097.39.097.601 0 .891-.41 1.617-1.23 2.178l-.313.184c-.097.062-.213.13-.347.205.375.114.718.262 1.028.446.31.184.582.403.813.658.352.386.528.886.528 1.499 0 .533-.164 1.03-.493 1.492-.315.443-.753.795-1.313 1.054-.57.264-1.306.405-2.21.424v1.648Zm0-8.02c.736-.099 1.162-.268 1.278-.509.116-.245.157-.533.125-.863-.033-.33-.134-.584-.306-.763-.167-.184-.533-.31-1.098-.375v2.51ZM11.35 8.5h-1.021v2.652h1.021V8.5Zm1.55 7.298c.861-.1 1.377-.392 1.549-.877.171-.486.162-.945-.028-1.38-.185-.438-.692-.669-1.522-.692v2.949Zm-2.571-3.048v3.055h1.021V12.75h-1.021Z" fill="var(--color--bulma-100)"/><defs><linearGradient id="a" x1="5.146" y1="1.829" x2="17.527" y2="22.95" gradientUnits="userSpaceOnUse"><stop stop-color="#FF3D44"/><stop offset=".516" stop-color="#FF3D44"/><stop offset=".516" stop-color="#3356D2"/></linearGradient></defs>
</symbol>
</svg>
